_includes/icons/ios-medium-priority.svg

<svg fill="#666" height="50" viewBox="0 0 50 50" width="50" xmlns="http://www.w3.org/2000/svg"><path d="m25 0c-1.0625 0-2.132812.382813-2.96875 1.15625-.011719.011719-.019531.019531-.03125.03125l-20.8125 20.90625c-1.59375 1.59375-1.578125 4.199219-.03125 5.875l.03125.03125 20.8125 20.8125c1.59375 1.59375 4.199219 1.578125 5.875.03125l.03125-.03125 20.8125-20.8125c1.664063-1.664062 1.6875-4.3125.09375-5.90625l-20.90625-20.90625c-.796875-.796875-1.84375-1.1875-2.90625-1.1875zm-.03125 2c.5625 0 1.128906.191406 1.53125.59375l20.90625 20.90625c.808594.808594.8125 2.15625-.125 3.09375l-20.75 20.78125c-.011719.011719-.019531.023438-.03125.03125-.925781.824219-2.296875.796875-3.09375 0l-20.78125-20.78125c-.011719-.011719-.019531-.019531-.03125-.03125-.410156-.460937-.597656-1.035156-.59375-1.59375 0-.140625.003906-.269531.03125-.40625.078125-.40625.261719-.792969.5625-1.09375l20.78125-20.875.03125-.03125c.457031-.40625 1.011719-.59375 1.5625-.59375zm-6.96875 21c-1.105469 0-2 .894531-2 2s.894531 2 2 2 2-.894531 2-2-.894531-2-2-2zm7 0c-1.105469 0-2 .894531-2 2s.894531 2 2 2 2-.894531 2-2-.894531-2-2-2zm7 0c-1.105469 0-2 .894531-2 2s.894531 2 2 2 2-.894531 2-2-.894531-2-2-2z"/></svg>

<svg xmlns="http://www.w3.org/2000/svg" viewBox="0 0 50 50" width="50" height="50" fill="#666"><path d="M 25 0 C 23.9375 0 22.867188 0.382813 22.03125 1.15625 C 22.019531 1.167969 22.011719 1.175781 22 1.1875 L 1.1875 22.09375 C -0.40625 23.6875 -0.390625 26.292969 1.15625 27.96875 C 1.167969 27.980469 1.175781 27.988281 1.1875 28 L 22 48.8125 C 23.59375 50.40625 26.199219 50.390625 27.875 48.84375 C 27.886719 48.832031 27.894531 48.824219 27.90625 48.8125 L 48.71875 28 C 50.382813 26.335938 50.40625 23.6875 48.8125 22.09375 L 27.90625 1.1875 C 27.109375 0.390625 26.0625 0 25 0 Z M 24.96875 2 C 25.53125 2 26.097656 2.191406 26.5 2.59375 L 47.40625 23.5 C 48.214844 24.308594 48.21875 25.65625 47.28125 26.59375 L 26.53125 47.375 C 26.519531 47.386719 26.511719 47.398438 26.5 47.40625 C 25.574219 48.230469 24.203125 48.203125 23.40625 47.40625 L 2.625 26.625 C 2.613281 26.613281 2.605469 26.605469 2.59375 26.59375 C 2.183594 26.132813 1.996094 25.558594 2 25 C 2 24.859375 2.003906 24.730469 2.03125 24.59375 C 2.109375 24.1875 2.292969 23.800781 2.59375 23.5 L 23.375 2.625 L 23.40625 2.59375 C 23.863281 2.1875 24.417969 2 24.96875 2 Z M 18 23 C 16.894531 23 16 23.894531 16 25 C 16 26.105469 16.894531 27 18 27 C 19.105469 27 20 26.105469 20 25 C 20 23.894531 19.105469 23 18 23 Z M 25 23 C 23.894531 23 23 23.894531 23 25 C 23 26.105469 23.894531 27 25 27 C 26.105469 27 27 26.105469 27 25 C 27 23.894531 26.105469 23 25 23 Z M 32 23 C 30.894531 23 30 23.894531 30 25 C 30 26.105469 30.894531 27 32 27 C 33.105469 27 34 26.105469 34 25 C 34 23.894531 33.105469 23 32 23 Z"/></svg>
